X:15170044730191
T:11-6-3-12-6-10-3-2-6-8-11-3-11-6-2-7
%%setfont-1 Courier-Bold 8
T:$1K.516f::3:74:128:103:80:129:134:30:25:155:31:56:144:136:109:151::$0
T:$1Perm. No.: 15170044730191$0
M:3/8
L:1/8
Q:1/8=111
%%staves [1 2]
V:1 clef=treble
V:2 clef=bass
K:C
%1
[V:1]|: gce |\
[V:2]|: [E,2C,2]z |\
%2
[V:1] c'/b/c'/g/e/c/ |\
[V:2] E,2z & C,2x |\
%3
[V:1] Bdg |\
[V:2] G,,2z |\
%4
[V:1] c/e/c/G/E |\
[V:2] [E,2C,2]z |\
%5
[V:1] d!turn!A^f |\
[V:2] C,2z |\
%6
[V:1] a/g/^f/g/d |\
[V:2] [D,B,,][D,B,,][G,B,,] |\
%7
[V:1] A/e/[d/B/][c/A/][B/G/][A/^F/] \
[V:2] C,D,D,, \
%8a
[V:1]|1 [g2d2B2G2]z :|2
[V:2]|1 G,,G,/=F,/E,/D,/ :|2
%8b
[V:1] [g2d2B2G2]z |:\
[V:2] G,,B,/G,/^F,/E,/ |:\
%9
[V:1] D/^F/A/d/^f/a/ |\
[V:2] D,2C, |\
%10
[V:1] g/b/g/d/B/G/ |\
[V:2] [D,2B,,2]z |\
%11
[V:1] e/c/G e |\
[V:2] [G,2C,2][G,C,] |\
%12
[V:1] d/B/Gz |\
[V:2] [G,2G,,2]G, |\
%13
[V:1] gce |\
[V:2] [E,/C,/]G,/[E,/C,/]G,/[E,/C,/]G,/ |\
%14
[V:1] c'/b/c'/g/e/c/ |\
[V:2] [E,2C,2]z |\
%15
[V:1] d/f/d/f/B/d/ |\
[V:2] [A,2F,2][DG,] |\
%16
[V:1] c2z :|]
[V:2] C,G,,C,, :|]
